svg/emoji_u1f62d.svg

<svg width="128" height="128" viewBox="0 0 128 128" fill="none" xmlns="http://www.w3.org/2000/svg">
<path d="M63.6001 118.8C35.7001 118.8 5.6001 101.3 5.6001 62.9C5.6001 24.5 35.7001 7 63.6001 7C79.1001 7 93.4001 12.1 104 21.4C115.5 31.6 121.6 46 121.6 62.9C121.6 79.8 115.5 94.1 104 104.3C93.4001 113.6 79.0001 118.8 63.6001 118.8Z" fill="url(#paint0_radial_2452_185)" style=""/>
<path d="M111.49 29.6699C116.82 38.2699 119.6 48.5099 119.6 59.8999C119.6 76.7999 113.5 91.0999 102 101.3C91.3999 110.6 76.9999 115.8 61.5999 115.8C43.5399 115.8 24.5599 108.45 13.4199 92.8599C24.1799 110.52 44.4099 118.8 63.5999 118.8C78.9999 118.8 93.3999 113.6 104 104.3C115.5 94.0999 121.6 79.7999 121.6 62.8999C121.6 50.1599 118.13 38.8399 111.49 29.6699Z" fill="#EB8F00" style="fill:#EB8F00;fill:color(display-p3 0.9216 0.5608 0.0000);fill-opacity:1;"/>
<path d="M63.6001 118.8C35.7001 118.8 5.6001 101.3 5.6001 62.9C5.6001 24.5 35.7001 7 63.6001 7C79.1001 7 93.4001 12.1 104 21.4C115.5 31.6 121.6 46 121.6 62.9C121.6 79.8 115.5 94.1 104 104.3C93.4001 113.6 79.0001 118.8 63.6001 118.8Z" fill="url(#paint1_radial_2452_185)" style=""/>
<path d="M111.49 29.6699C116.82 38.2699 119.6 48.5099 119.6 59.8999C119.6 76.7999 113.5 91.0999 102 101.3C91.3999 110.6 76.9999 115.8 61.5999 115.8C43.5399 115.8 24.5599 108.45 13.4199 92.8599C24.1799 110.52 44.4099 118.8 63.5999 118.8C78.9999 118.8 93.3999 113.6 104 104.3C115.5 94.0999 121.6 79.7999 121.6 62.8999C121.6 50.1599 118.13 38.8399 111.49 29.6699Z" fill="#EB8F00" style="fill:#EB8F00;fill:color(display-p3 0.9216 0.5608 0.0000);fill-opacity:1;"/>
<path d="M22.1899 45.9101C21.6699 46.0001 21.1299 45.9201 20.6699 45.7001C19.7599 45.2601 19.0699 44.1901 19.5899 42.7901C21.4999 37.8501 25.4499 33.7101 30.4299 31.4101C32.2799 30.5501 34.2199 29.98 36.2099 29.71C37.6999 29.54 38.5699 30.4501 38.7799 31.4201C39.0099 32.5001 38.5199 33.82 37.1199 34.28L36.9999 34.3201C31.6099 36.1801 26.7999 39.99 23.8199 44.76C23.4099 45.44 22.8099 45.8001 22.1899 45.9101Z" fill="#422B0D" style="fill:#422B0D;fill:color(display-p3 0.2588 0.1686 0.0510);fill-opacity:1;"/>
<path d="M103.53 44.7602C100.55 39.9902 95.7399 36.1802 90.3499 34.3202L90.2299 34.2802C88.8299 33.8302 88.3299 32.5002 88.5699 31.4202C88.7799 30.4402 89.6599 29.5402 91.1399 29.7102C93.1199 29.9702 95.0699 30.5502 96.9199 31.4102C101.9 33.7102 105.85 37.8502 107.76 42.7902C108.28 44.1902 107.59 45.2602 106.68 45.7002C106.23 45.9202 105.69 46.0002 105.16 45.9102C104.54 45.8002 103.94 45.4402 103.53 44.7602Z" fill="#422B0D" style="fill:#422B0D;fill:color(display-p3 0.2588 0.1686 0.0510);fill-opacity:1;"/>
<path d="M98.941 108.234C93.7032 111.835 87.7869 114.58 81.4443 116.368L81.87 49.2401C81.9874 49.1688 82.8098 49.0941 83.7843 49.0054C85.1339 48.8827 86.7754 48.7334 87.24 48.5301C87.64 48.3601 88.06 48.2401 88.46 48.1401C88.5297 48.1291 88.6115 48.1127 88.6906 48.0969C88.8271 48.0695 88.9556 48.0438 89 48.0501C89.0241 48.0471 89.0364 48.0432 89.049 48.0392C89.078 48.0299 89.1085 48.0201 89.29 48.0201L89.58 48.0101H89.71C90.54 48.0001 91.35 48.2001 92.15 48.5301C92.95 48.8801 93.71 49.3801 94.35 49.9201C94.66 50.1901 94.96 50.4601 95.21 50.7101L95.83 51.3301C95.8961 51.3797 95.969 51.4703 96.0431 51.5623C96.0587 51.5816 96.0743 51.601 96.09 51.6201C96.17 51.7301 96.24 51.8201 96.3 51.8901C96.42 52.0301 96.48 52.1101 96.48 52.1101C96.65 52.3201 96.86 52.5101 97.07 52.6701L98.941 108.234Z" fill="#29B6F6" style="fill:#29B6F6;fill:color(display-p3 0.1608 0.7137 0.9647);fill-opacity:1;"/>
<path d="M89.9756 113.27C88.7199 113.835 87.4396 114.36 86.137 114.842L85.5598 45.2202L88.5648 45.4973L89.9756 113.27Z" fill="#81D4FA" style="fill:#81D4FA;fill:color(display-p3 0.5059 0.8314 0.9804);fill-opacity:1;"/>
<path d="M46.8361 116.668C40.6307 115.055 34.6428 112.516 29.2441 109.01L31.24 52.4399C31.2551 52.4249 31.2701 52.4124 31.2851 52.3999C31.3001 52.3874 31.3151 52.3749 31.33 52.3599L31.63 52.0199C31.63 52.0199 31.8401 51.7899 32.2001 51.3799C32.5601 50.9799 33.0901 50.4499 33.7201 49.9099C34.3601 49.3699 35.12 48.8699 35.92 48.5199C36.32 48.3499 36.74 48.2299 37.14 48.1299C37.2097 48.1189 37.2915 48.1025 37.3706 48.0866C37.5072 48.0593 37.6357 48.0335 37.6801 48.0399C37.7042 48.0368 37.7165 48.0329 37.7291 48.0289C37.7581 48.0196 37.7886 48.0099 37.9701 48.0099L38.26 47.9999H38.3901C39.22 47.9899 40.0301 48.1899 40.8301 48.5199C41.63 48.8699 42.3901 49.3699 43.0301 49.9099C43.34 50.1799 43.6401 50.4499 43.8901 50.6999L44.51 51.3199C44.5762 51.3695 44.6491 51.46 44.7232 51.5521C44.7388 51.5714 44.7544 51.5908 44.77 51.6099C44.85 51.7199 44.92 51.8099 44.98 51.8799C45.023 51.9336 45.1585 51.5971 45.3371 51.1532C45.6571 50.3582 46.1156 49.2187 46.4301 49.3599L46.8361 116.668Z" fill="#29B6F6" style="fill:#29B6F6;fill:color(display-p3 0.1608 0.7137 0.9647);fill-opacity:1;"/>
<path d="M36.2069 112.861C35.2693 112.424 34.3429 111.962 33.4294 111.476L35.0217 49.4603C35.0694 49.3961 35.1098 49.0712 35.1503 48.7461C35.1905 48.4237 35.2307 48.1011 35.2779 48.0321C35.6938 47.9968 36.1097 47.4885 36.4644 47.055C37.0726 46.3117 37.5009 45.7882 37.441 48.2453C37.2837 54.9729 37.0938 65.6917 36.9092 76.1152C36.8182 81.2521 36.7284 87.019 36.6445 92.4133C36.4878 102.483 36.3514 111.254 36.2646 112.205C36.2444 112.431 36.225 112.649 36.2069 112.861Z" fill="#81D4FA" style="fill:#81D4FA;fill:color(display-p3 0.5059 0.8314 0.9804);fill-opacity:1;"/>
<path d="M48.6001 54.43L48.4001 54.23C48.3001 54.13 48.0001 53.83 47.9001 53.73C47.7001 53.53 47.5001 53.43 47.2001 53.13C46.9001 52.93 46.6001 52.63 46.2001 52.43C45.8001 52.23 45.4001 51.93 45.0001 51.73C44.6001 51.53 44.1001 51.33 43.6001 51.13C43.1001 50.93 42.6001 50.83 42.1001 50.73C41.6001 50.63 41.1001 50.63 40.5001 50.63H40.3001H40.0001C39.7001 50.63 39.7001 50.63 39.6001 50.63C39.4001 50.63 39.1001 50.73 38.9001 50.73C38.4001 50.83 37.9001 50.93 37.4001 51.13C36.9001 51.33 36.4001 51.43 36.0001 51.73C35.6001 51.93 35.2001 52.13 34.8001 52.43C34.1001 52.93 33.5001 53.43 33.1001 53.73C32.7001 54.13 32.5001 54.33 32.5001 54.33L32.3001 54.53C31.1001 55.73 29.1001 55.73 27.7001 54.73C26.7001 53.93 26.4001 52.53 26.9001 51.53L27.0001 51.23C27.1001 51.03 27.2001 50.73 27.4001 50.43C27.8001 49.73 28.5001 48.73 29.6001 47.63C30.1001 47.13 30.8001 46.53 31.5001 46.03C32.2001 45.53 33.1001 45.03 34.0001 44.63C34.9001 44.23 36.0001 43.83 37.0001 43.63C37.5001 43.53 38.1001 43.43 38.7001 43.33C39.0001 43.33 39.4001 43.23 39.5001 43.23H40.3001C41.4001 43.23 42.5001 43.33 43.6001 43.53C44.7001 43.73 45.7001 44.13 46.6001 44.53C47.5001 44.93 48.4001 45.43 49.1001 45.93C49.9001 46.43 50.5001 46.93 51.0001 47.53C51.5001 48.03 52.0001 48.53 52.3001 49.03C52.5001 49.23 52.6001 49.53 52.8001 49.73C52.9001 49.93 53.1001 50.13 53.2001 50.33C53.5001 50.73 53.5001 50.93 53.6001 51.13C53.7001 51.33 53.7001 51.33 53.7001 51.33C54.4001 52.83 53.6001 54.53 51.9001 55.13C51.0001 55.63 49.5001 55.33 48.6001 54.43Z" fill="#422B0D" style="fill:#422B0D;fill:color(display-p3 0.2588 0.1686 0.0510);fill-opacity:1;"/>
<path d="M95.5099 54.0702C95.5099 54.0702 95.4399 54.0002 95.3099 53.8702C95.1999 53.7602 94.9499 53.4802 94.7999 53.3702C94.6099 53.2102 94.3799 53.0202 94.1099 52.8002C93.8199 52.5802 93.4899 52.3402 93.1299 52.0902C92.7599 51.8602 92.3599 51.6202 91.9299 51.4102C91.5099 51.1802 91.0299 51.0202 90.5499 50.8402C90.0699 50.6702 89.5599 50.5802 89.0499 50.4702C88.5399 50.3902 88.0099 50.3502 87.4799 50.3502C87.7799 50.3502 87.5599 50.3502 87.6199 50.3502H87.6099H87.5899H87.5499H87.4699H87.3099L86.9999 50.3602C86.7399 50.3602 86.6999 50.3802 86.5999 50.3902C86.4399 50.3902 86.1499 50.4402 85.8999 50.4802C85.3899 50.5902 84.8799 50.6802 84.3999 50.8502C83.9299 51.0302 83.4499 51.1902 83.0299 51.4202C82.5999 51.6402 82.1999 51.8702 81.8299 52.1002C81.1099 52.5802 80.5199 53.0602 80.1299 53.4202C79.7299 53.7802 79.4999 54.0002 79.4999 54.0002L79.2499 54.2502C78.0399 55.4202 75.9999 55.4902 74.6799 54.4202C73.6399 53.5702 73.3799 52.2602 73.8999 51.1702C73.8999 51.1702 73.9499 51.0702 74.0499 50.8702C74.1499 50.6802 74.2699 50.3802 74.4899 50.0302C74.8999 49.3202 75.5799 48.3202 76.6599 47.2702C77.1999 46.7502 77.8299 46.2002 78.5799 45.7002C79.3099 45.1802 80.1599 44.7102 81.0999 44.3002C82.0399 43.9002 83.0599 43.5502 84.1399 43.3302C84.6899 43.2302 85.1999 43.1302 85.8699 43.0702C86.1799 43.0402 86.5499 43.0102 86.7099 43.0002L87.4799 42.9702C88.6099 42.9902 89.7299 43.1102 90.8199 43.3202C91.8999 43.5402 92.9199 43.8902 93.8599 44.2902C94.7899 44.7002 95.6499 45.1702 96.3799 45.6902C97.1299 46.1902 97.7499 46.7302 98.2899 47.2602C98.8299 47.7802 99.2599 48.3002 99.6199 48.7702C99.7899 49.0102 99.9499 49.2302 100.1 49.4402C100.24 49.6702 100.38 49.8802 100.49 50.0702C100.76 50.4902 100.78 50.6502 100.88 50.8402C100.95 51.0002 100.99 51.0902 100.99 51.0902C101.66 52.5802 100.85 54.2702 99.1799 54.8702C97.8699 55.3402 96.3999 54.9802 95.5099 54.0702Z" fill="#422B0D" style="fill:#422B0D;fill:color(display-p3 0.2588 0.1686 0.0510);fill-opacity:1;"/>
<path d="M64.5966 81.022C68.4066 81.032 72.2066 80.832 75.9966 80.422C76.0466 73.792 70.7066 68.382 64.0766 68.342C57.4466 68.302 52.0466 73.622 51.9966 80.252C56.1766 80.772 60.3866 81.032 64.5966 81.022Z" fill="white" style="fill:white;fill-opacity:1;"/>
<path d="M51.9966 80.252C51.9966 80.512 51.9966 80.7619 51.9966 81.0219V92.822C51.9966 99.452 57.3666 104.822 63.9966 104.822C70.6266 104.822 75.9966 99.452 75.9966 92.822V81.0219C75.9966 80.8119 75.9966 80.602 75.9966 80.392C72.2166 80.812 68.4266 81.0219 64.6266 81.0219C60.4066 81.0319 56.1866 80.772 51.9966 80.252Z" fill="#422B0D" style="fill:#422B0D;fill:color(display-p3 0.2588 0.1686 0.0510);fill-opacity:1;"/>
<path d="M75.9967 81.0219C75.4167 78.0819 73.8767 75.4119 71.6267 73.4219C67.2567 69.6119 60.7367 69.6119 56.3667 73.4219C54.1167 75.4119 52.5867 78.0819 51.9967 81.0219C51.4367 77.6719 52.4367 74.2519 54.7067 71.7319C59.1967 66.6019 67.0067 66.0819 72.1367 70.5819C72.5467 70.9419 72.9267 71.3219 73.2867 71.7319C74.4167 73.0119 75.2467 74.5219 75.7267 76.1619C76.1867 77.7419 76.2767 79.4019 75.9967 81.0219Z" fill="#EB8F00" style="fill:#EB8F00;fill:color(display-p3 0.9216 0.5608 0.0000);fill-opacity:1;"/>
<defs>
<radialGradient id="paint0_radial_2452_185" cx="0" cy="0" r="1" gradientUnits="userSpaceOnUse" gradientTransform="translate(63.6001 62.8999) scale(56.9597 56.9597)">
<stop offset="0.5" stop-color="#FDE030" style="stop-color:#FDE030;stop-color:color(display-p3 0.9922 0.8784 0.1882);stop-opacity:1;"/>
<stop offset="0.9188" stop-color="#F7C02B" style="stop-color:#F7C02B;stop-color:color(display-p3 0.9686 0.7529 0.1686);stop-opacity:1;"/>
<stop offset="1" stop-color="#F4A223" style="stop-color:#F4A223;stop-color:color(display-p3 0.9569 0.6353 0.1373);stop-opacity:1;"/>
</radialGradient>
<radialGradient id="paint1_radial_2452_185" cx="0" cy="0" r="1" gradientUnits="userSpaceOnUse" gradientTransform="translate(63.6001 62.8999) scale(56.9597 56.9597)">
<stop offset="0.5" stop-color="#FDE030" style="stop-color:#FDE030;stop-color:color(display-p3 0.9922 0.8784 0.1882);stop-opacity:1;"/>
<stop offset="0.9188" stop-color="#F7C02B" style="stop-color:#F7C02B;stop-color:color(display-p3 0.9686 0.7529 0.1686);stop-opacity:1;"/>
<stop offset="1" stop-color="#F4A223" style="stop-color:#F4A223;stop-color:color(display-p3 0.9569 0.6353 0.1373);stop-opacity:1;"/>
</radialGradient>
</defs>
</svg>

<?xml version="1.0" encoding="utf-8"?>
<!-- Generator: Adobe Illustrator 24.1.2, SVG Export Plug-In . SVG Version: 6.00 Build 0)  -->
<svg version="1.1" id="Layer_1" xmlns="http://www.w3.org/2000/svg" xmlns:xlink="http://www.w3.org/1999/xlink" x="0px" y="0px"
	 viewBox="0 0 128 128" style="enable-background:new 0 0 128 128;" xml:space="preserve">
<radialGradient id="face_1_" cx="63.6" cy="-2088.8999" r="56.9597" gradientTransform="matrix(1 0 0 -1 0 -2026)" gradientUnits="userSpaceOnUse">
	<stop  offset="0.5" style="stop-color:#FDE030"/>
	<stop  offset="0.9188" style="stop-color:#F7C02B"/>
	<stop  offset="1" style="stop-color:#F4A223"/>
</radialGradient>
<path id="face_126_" style="fill:url(#face_1_);" d="M63.6,118.8c-27.9,0-58-17.5-58-55.9S35.7,7,63.6,7c15.5,0,29.8,5.1,40.4,14.4
	c11.5,10.2,17.6,24.6,17.6,41.5s-6.1,31.2-17.6,41.4C93.4,113.6,79,118.8,63.6,118.8z"/>
<path style="fill:#EB8F00;" d="M111.49,29.67c5.33,8.6,8.11,18.84,8.11,30.23c0,16.9-6.1,31.2-17.6,41.4
	c-10.6,9.3-25,14.5-40.4,14.5c-18.06,0-37.04-7.35-48.18-22.94c10.76,17.66,30.99,25.94,50.18,25.94c15.4,0,29.8-5.2,40.4-14.5
	c11.5-10.2,17.6-24.5,17.6-41.4C121.6,50.16,118.13,38.84,111.49,29.67z"/>
<g id="prop_24_">
	<g>
		<g>
			<path style="fill:#5F7AFF;" d="M38.53,48C38.58,48,38.55,48,38.53,48L38.53,48z"/>
		</g>
	</g>
	<g>
		<g>
			<path style="fill:#5F7AFF;" d="M95.86,48C95.9,48,95.88,48,95.86,48L95.86,48z"/>
		</g>
	</g>
</g>
<radialGradient id="face_2_" cx="63.6" cy="-2088.8999" r="56.9597" gradientTransform="matrix(1 0 0 -1 0 -2026)" gradientUnits="userSpaceOnUse">
	<stop  offset="0.5" style="stop-color:#FDE030"/>
	<stop  offset="0.9188" style="stop-color:#F7C02B"/>
	<stop  offset="1" style="stop-color:#F4A223"/>
</radialGradient>
<path id="face_125_" style="fill:url(#face_2_);" d="M63.6,118.8c-27.9,0-58-17.5-58-55.9S35.7,7,63.6,7c15.5,0,29.8,5.1,40.4,14.4
	c11.5,10.2,17.6,24.6,17.6,41.5s-6.1,31.2-17.6,41.4C93.4,113.6,79,118.8,63.6,118.8z"/>
<g id="mouth_85_">
	<path style="fill:#422B0D;" d="M89.74,79.1c-7.32-2.35-16.21-3.6-25.74-3.6c-9.68,0-18.63,1.37-26.07,3.75
		c-2.82,4.67-4.53,10.08-4.53,15.85c0,4.9,4.9,7.8,9.2,5.8c5.4-2.5,13.3-5,21.4-5s16.1,2.5,21.4,5c4.3,2,9.2-0.9,9.2-5.8
		C94.6,89.27,92.73,83.8,89.74,79.1z"/>
	<path style="fill:#FFFFFF;" d="M89.74,79.1C83.7,69.6,73.09,67.2,64,67.2c-9.88,0-20.3,2.47-26.07,12.05
		C45.37,76.87,54.32,75.5,64,75.5C73.52,75.5,82.42,76.75,89.74,79.1z"/>
</g>
<g>
	<path style="fill:#EB8F00;" d="M63.94,65.7c3.5,0.09,7.03,0.41,10.46,1.3c3.44,0.84,6.78,2.28,9.71,4.34
		c2.9,2.11,5.34,4.85,7.01,7.97c1.7,3.07,2.94,6.4,3.56,9.85c0.32,1.72,0.49,3.47,0.49,5.22c0.03,0.84-0.05,1.83-0.3,2.72
		c-0.26,0.9-0.72,1.73-1.31,2.45c-1.18,1.45-2.98,2.31-4.81,2.44c-0.91,0.05-1.83-0.07-2.69-0.35c-0.87-0.32-1.6-0.71-2.38-1.05
		c-6.2-2.74-12.91-4.52-19.74-4.68c6.84-0.09,13.66,1.44,20.04,3.99c0.8,0.31,1.6,0.7,2.34,0.94c0.77,0.22,1.58,0.29,2.36,0.22
		c1.57-0.17,3.07-0.97,4.01-2.21c0.47-0.62,0.83-1.32,1.01-2.07c0.18-0.77,0.22-1.5,0.17-2.36c-0.07-1.67-0.29-3.33-0.65-4.95
		c-0.71-3.25-2-6.37-3.71-9.21c-1.68-2.85-3.98-5.23-6.67-7.05c-2.73-1.77-5.81-2.98-9.03-3.64c-3.21-0.7-6.54-0.89-9.87-0.85V65.7z
		"/>
</g>
<g>
	<path style="fill:#EB8F00;" d="M64.19,68.7c-3.32-0.04-6.66,0.15-9.87,0.85c-3.22,0.66-6.3,1.87-9.03,3.64
		c-2.69,1.82-4.99,4.2-6.67,7.05c-1.72,2.84-3,5.95-3.71,9.21c-0.36,1.63-0.59,3.28-0.65,4.95c-0.06,0.86-0.01,1.59,0.17,2.36
		c0.19,0.75,0.55,1.45,1.01,2.07c0.94,1.24,2.44,2.04,4.01,2.21c0.79,0.07,1.59,0,2.36-0.22c0.74-0.24,1.54-0.62,2.34-0.94
		c6.37-2.55,13.2-4.08,20.04-3.99c-6.84,0.16-13.55,1.94-19.74,4.68c-0.78,0.34-1.51,0.73-2.38,1.05c-0.86,0.28-1.78,0.4-2.69,0.35
		c-1.82-0.12-3.62-0.99-4.81-2.44c-0.59-0.72-1.05-1.55-1.31-2.45c-0.25-0.88-0.33-1.87-0.3-2.72c0.01-1.75,0.18-3.49,0.49-5.22
		c0.63-3.45,1.86-6.78,3.56-9.85c1.68-3.11,4.12-5.86,7.01-7.97c2.93-2.06,6.27-3.51,9.71-4.34c3.44-0.88,6.97-1.21,10.46-1.3V68.7z
		"/>
</g>
<path style="fill:#EB8F00;" d="M111.49,29.67c5.33,8.6,8.11,18.84,8.11,30.23c0,16.9-6.1,31.2-17.6,41.4
	c-10.6,9.3-25,14.5-40.4,14.5c-18.06,0-37.04-7.35-48.18-22.94c10.76,17.66,30.99,25.94,50.18,25.94c15.4,0,29.8-5.2,40.4-14.5
	c11.5-10.2,17.6-24.5,17.6-41.4C121.6,50.16,118.13,38.84,111.49,29.67z"/>
<g id="prop_23_">
	<g>
		<g>
			<path style="fill:#5F7AFF;" d="M36.53,48C36.58,48,36.55,48,36.53,48L36.53,48z"/>
		</g>
	</g>
	<g>
		<g>
			<path style="fill:#5F7AFF;" d="M93.86,48C93.9,48,93.88,48,93.86,48L93.86,48z"/>
		</g>
	</g>
</g>
<path id="left-eyebrow_6_" style="fill:#422B0D;" d="M22.19,45.91c-0.52,0.09-1.06,0.01-1.52-0.21c-0.91-0.44-1.6-1.51-1.08-2.91
	c1.91-4.94,5.86-9.08,10.84-11.38c1.85-0.86,3.79-1.43,5.78-1.7c1.49-0.17,2.36,0.74,2.57,1.71c0.23,1.08-0.26,2.4-1.66,2.86
	L37,34.32c-5.39,1.86-10.2,5.67-13.18,10.44C23.41,45.44,22.81,45.8,22.19,45.91z"/>
<path id="left-eyebrow_5_" style="fill:#422B0D;" d="M103.53,44.76c-2.98-4.77-7.79-8.58-13.18-10.44l-0.12-0.04
	c-1.4-0.45-1.9-1.78-1.66-2.86c0.21-0.98,1.09-1.88,2.57-1.71c1.98,0.26,3.93,0.84,5.78,1.7c4.98,2.3,8.93,6.44,10.84,11.38
	c0.52,1.4-0.17,2.47-1.08,2.91c-0.45,0.22-0.99,0.3-1.52,0.21C104.54,45.8,103.94,45.44,103.53,44.76z"/>
<g>
	<path style="fill:#29B6F6;" d="M111.74,111c0-3.07-5.55-5.62-12.52-5.78l-2.15-52.55c-0.21-0.16-0.42-0.35-0.59-0.56
		c0,0-0.06-0.08-0.18-0.22c-0.06-0.07-0.13-0.16-0.21-0.27c-0.09-0.11-0.18-0.23-0.26-0.29c-0.17-0.17-0.38-0.38-0.62-0.62
		c-0.25-0.25-0.55-0.52-0.86-0.79c-0.64-0.54-1.4-1.04-2.2-1.39c-0.8-0.33-1.61-0.53-2.44-0.52l-0.13,0l-0.29,0.01
		c-0.26,0-0.21,0.02-0.29,0.03c-0.07-0.01-0.35,0.06-0.54,0.09c-0.4,0.1-0.82,0.22-1.22,0.39c-0.8,0.35-5.09,0.54-5.37,0.71
		l-0.46,61.25c-4.53,1.37-9.49,3.67-9.49,6.24c0,4.19,7.83,7.6,17.49,7.6c9.66,0,17.49-3.39,17.49-7.58c0-0.42-0.1-0.82-0.25-1.22
		C109.75,114.47,111.74,112.84,111.74,111z"/>
</g>
<path style="fill:#81D4FA;" d="M86.38,106.87c0.09,3.25-1.87,6.19-4.89,7.4c-3.67,1.47-7.17,3.54-1.93,4.78c0,0,3.95,1.94,5.96,0.93
	c0.9-0.45,0.59-1.19-0.03-1.86c-0.68-0.73-0.34-1.91,0.63-2.13l0.86-0.19c2.18-0.48,3.71-2.45,3.65-4.68l-1.61-65.63l-3.29-0.27
	L86.38,106.87z"/>
<g>
	<path style="fill:#29B6F6;" d="M46.88,110.49l-0.45-61.13c-0.49-0.22-1.33,2.67-1.45,2.52c-0.06-0.07-0.13-0.16-0.21-0.27
		c-0.09-0.11-0.18-0.23-0.26-0.29c-0.17-0.17-0.38-0.38-0.62-0.62c-0.25-0.25-0.55-0.52-0.86-0.79c-0.64-0.54-1.4-1.04-2.2-1.39
		c-0.8-0.33-1.61-0.53-2.44-0.52l-0.13,0l-0.29,0.01c-0.26,0-0.21,0.02-0.29,0.03c-0.07-0.01-0.35,0.06-0.54,0.09
		c-0.4,0.1-0.82,0.22-1.22,0.39c-0.8,0.35-1.56,0.85-2.2,1.39c-0.63,0.54-1.16,1.07-1.52,1.47c-0.36,0.41-0.57,0.64-0.57,0.64
		l-0.3,0.34c-0.03,0.03-0.06,0.05-0.09,0.08l-2.16,52.77c-6.98,0.16-12.52,2.69-12.52,5.76c0,1.84,1.99,3.49,5.08,4.54
		c-0.15,0.4-0.25,0.81-0.25,1.23c0,4.19,7.83,7.59,17.49,7.59s17.49-3.42,17.49-7.61C56.37,114.15,51.4,111.86,46.88,110.49z"/>
</g>
<path style="fill:#81D4FA;" d="M35.25,49.14L33.5,104.4c-0.05,1.61-1.4,2.87-3,2.8c-2.08-0.09-4.93,0.15-7.27,1.6
	c-1.26,0.78-1.78,2.77-0.63,3.88c1.26,1.21,4.56,0.16,6.21-0.01c0.72-0.07,1.67,0,1.86,0.7c0.11,0.4-0.13,0.83-0.46,1.07
	c-0.33,0.25-0.74,0.35-1.14,0.47c-0.66,0.19-1.32,0.42-1.84,0.87c-0.51,0.45-0.84,1.17-0.66,1.83c0.24,0.85,1.18,1.26,2.01,1.55
	c1.46,0.53,2.95,1.06,4.5,1.13c0.09-1.1-1.62-1.86-1.28-2.91c0.12-0.37,0.47-0.61,0.82-0.78c0.94-0.44,2.01-0.53,3.02-0.77
	c1.66-0.39,4.66-1.23,3.88-3.51c-0.26-0.75-0.79-1.36-1.24-2.02c-1.69-2.5-2.02-4.7-1.72-7.7c0.24-2.34,0.84-39.37,1.24-54.6
	c0.1-3.65-1.09-0.29-2.28-0.2C35.42,47.93,35.35,49.02,35.25,49.14z"/>
<path style="fill:#422B0D;" d="M48.6,54.43l-0.2-0.2c-0.1-0.1-0.4-0.4-0.5-0.5c-0.2-0.2-0.4-0.3-0.7-0.6c-0.3-0.2-0.6-0.5-1-0.7
	s-0.8-0.5-1.2-0.7s-0.9-0.4-1.4-0.6s-1-0.3-1.5-0.4s-1-0.1-1.6-0.1h0.1l0,0l0,0l0,0h-0.1h-0.2H40c-0.3,0-0.3,0-0.4,0
	c-0.2,0-0.5,0.1-0.7,0.1c-0.5,0.1-1,0.2-1.5,0.4c-0.5,0.2-1,0.3-1.4,0.6c-0.4,0.2-0.8,0.4-1.2,0.7c-0.7,0.5-1.3,1-1.7,1.3
	c-0.4,0.4-0.6,0.6-0.6,0.6l-0.2,0.2c-1.2,1.2-3.2,1.2-4.6,0.2c-1-0.8-1.3-2.2-0.8-3.2l0.1-0.3c0.1-0.2,0.2-0.5,0.4-0.8
	c0.4-0.7,1.1-1.7,2.2-2.8c0.5-0.5,1.2-1.1,1.9-1.6c0.7-0.5,1.6-1,2.5-1.4s2-0.8,3-1c0.5-0.1,1.1-0.2,1.7-0.3c0.3,0,0.7-0.1,0.8-0.1
	h0.8c1.1,0,2.2,0.1,3.3,0.3c1.1,0.2,2.1,0.6,3,1s1.8,0.9,2.5,1.4c0.8,0.5,1.4,1,1.9,1.6c0.5,0.5,1,1,1.3,1.5
	c0.2,0.2,0.3,0.5,0.5,0.7c0.1,0.2,0.3,0.4,0.4,0.6c0.3,0.4,0.3,0.6,0.4,0.8c0.1,0.2,0.1,0.2,0.1,0.2c0.7,1.5-0.1,3.2-1.8,3.8
	C51,55.63,49.5,55.33,48.6,54.43L48.6,54.43z"/>
<path style="fill:#422B0D;" d="M95.51,54.07c0,0-0.07-0.07-0.2-0.2c-0.11-0.11-0.36-0.39-0.51-0.5c-0.19-0.16-0.42-0.35-0.69-0.57
	c-0.29-0.22-0.62-0.46-0.98-0.71c-0.37-0.23-0.77-0.47-1.2-0.68c-0.42-0.23-0.9-0.39-1.38-0.57c-0.48-0.17-0.99-0.26-1.5-0.37
	c-0.51-0.08-1.04-0.12-1.57-0.12c0.3,0,0.08,0,0.14,0l-0.01,0l-0.02,0l-0.04,0l-0.08,0l-0.16,0l-0.31,0.01
	c-0.26,0-0.3,0.02-0.4,0.03c-0.16,0-0.45,0.05-0.7,0.09c-0.51,0.11-1.02,0.2-1.5,0.37c-0.47,0.18-0.95,0.34-1.37,0.57
	c-0.43,0.22-0.83,0.45-1.2,0.68c-0.72,0.48-1.31,0.96-1.7,1.32c-0.4,0.36-0.63,0.58-0.63,0.58l-0.25,0.25
	c-1.21,1.17-3.25,1.24-4.57,0.17c-1.04-0.85-1.3-2.16-0.78-3.25c0,0,0.05-0.1,0.15-0.3c0.1-0.19,0.22-0.49,0.44-0.84
	c0.41-0.71,1.09-1.71,2.17-2.76c0.54-0.52,1.17-1.07,1.92-1.57c0.73-0.52,1.58-0.99,2.52-1.4c0.94-0.4,1.96-0.75,3.04-0.97
	c0.55-0.1,1.06-0.2,1.73-0.26c0.31-0.03,0.68-0.06,0.84-0.07l0.77-0.03c1.13,0.02,2.25,0.14,3.34,0.35c1.08,0.22,2.1,0.57,3.04,0.97
	c0.93,0.41,1.79,0.88,2.52,1.4c0.75,0.5,1.37,1.04,1.91,1.57c0.54,0.52,0.97,1.04,1.33,1.51c0.17,0.24,0.33,0.46,0.48,0.67
	c0.14,0.23,0.28,0.44,0.39,0.63c0.27,0.42,0.29,0.58,0.39,0.77c0.07,0.16,0.11,0.25,0.11,0.25c0.67,1.49-0.14,3.18-1.81,3.78
	C97.87,55.34,96.4,54.98,95.51,54.07z"/>
</svg>
